X:1
T:His Glory Fills My Soul
T:His Glory Fills My Soul
T:Edwin Othello Excell
T:Adam Craig, 1897
T:Public Domain Courtesy of the Cyber Hymnal™
C:Edwin Othello Excell
Z:Public Domain
Z:Courtesy of the Cyber Hymnal™
%%score 1 ( 2 3 )
L:1/8
Q:1/4=90
M:2/4
K:C
V:1 treble 
V:2 bass 
V:3 bass 
V:1
 [EG] | [Ec][Ec] [EB][Ed] | [Ec] [EG]2 [EA] | [FB][FA] [FB][Fc] | [FB]3 [FA] | [FG][FA] [FG][FA] | %6
w: 1.~O|hear me while I|tell you what|Je- sus did for|me, He|brought me out of|
w: 2.~He|led me to the|fount- ain, and|washed a- way my|sin; He|clothed me in white|
w: 3.~He|drove out sin and|Sa- tan, and|filled my heart with|love; He|made my an- gry|
w: 4.~I|ne- ver was so|hap- py, I’m|free from ev- ery|care; For|Je- sus tra- vels|
w: 5.~O|sin- ner come to|Je- sus and|to Him bend the|knee; You|can- not buy sal-|
 [FG] [Fd]2 [FG] | [Ec][EB] [EA][Ec] | [EG]3 [EG] | [Ec][Ec] [EB][Ed] | [Ec] [EG]2 [EA] | %11
w: dark- ness, to|light and lib- er-|ty; He|filled my heart with|sun- shine; I’m|
w: rai- ment, and|cleansed my heart with-|in; He|is my bless- èd|Sav- ior; I|
w: spir- it as|gen- tle as a|dove; My|life o’er- flows with|glad- ness, the|
w: with me, my|bur- dens all to|share; And|if I’m faith- ful|to Him, a|
w: va- tion, the|of- fer’s full and|free; Up-|on the cross of|Cal- v’ry, He|
 [FB][FA] [FB][Fc] | [FB]3 [FA] | [FG][FG] [FB][Fd] | [Ec]3 ||"^Refrain" [EG] | [EG]4 | %17
w: hap- py as can|be; His|glo- ry fills my|soul.|||
w: give my life to|Him; His|glo- ry fills my|soul.|||
w: earth’s like Heav’n a-|bove; His|glo- ry fills my|soul.|His|glo-|
w: gold- en crown I’ll|wear; His|glo- ry fills my|soul.|||
w: died for you and|me; His|glo- ry fills my|soul.|||
 [CE]3 [Ec] | [Ec]4 | [EG]3 [CE] | [CG][CG] [B,F][CE] | [B,D]3 [FG] | [EG]4 | [CE]3 [Ec] | [Ec]4 | %25
w: ||||||||
w: ||||||||
w: ry, His|glo-|ry, His|glo- ry fills my|soul; His|glo-|ry, His|glo-|
w: ||||||||
w: ||||||||
 [EG]3 [EG] | [Ec][Ec] [DB][Fd] | [Ec]3 |] %28
w: |||
w: |||
w: ry, His|glo- ry fills my|soul.|
w: |||
w: |||
V:2
 [C,C] | [C,G,][C,G,] [C,G,][C,G,] | [C,G,] [C,C]2 [C,C] | [D,G,][D,B,] [G,D][G,D] | %4
 [G,D]3 [G,B,] | [G,B,][G,B,] [G,D][G,D] | [G,B,] [G,B,]2 [G,B,] | [C,C][C,C] [C,G,][C,G,] | %8
 [C,C]3 [C,C] | [C,G,][C,G,] [C,G,][C,G,] | [C,G,] [C,C]2 [C,C] | [D,G,][D,B,] [G,D][G,D] | %12
 [G,D]3 [G,B,] | [G,B,][G,B,] G,G, | [C,G,]3 || [C,C] | [C,C]4 | [C,G,]3 [C,G,] | [C,G,]4 | %19
 [C,C]3 [C,G,] | [E,G,][E,G,] [D,G,][C,G,] | [G,,G,]3 [G,,G,B,] | [C,C]4 | [C,G,]3 [C,G,] | %24
 [C,G,]4 | [C,C]3 [C,C] | [G,C][G,C] G,G, | [C,G,]3 |] %28
V:3
 x | x4 | x4 | x4 | x4 | x4 | x4 | x4 | x4 | x4 | x4 | x4 | x4 | x2 G,G, | x3 || x | x4 | x4 | x4 | %19
 x4 | x4 | x4 | x4 | x4 | x4 | x4 | x2 G,G, | x3 |] %28

